projgeom/figs/perspec2.svg

<?xml version="1.0" encoding="iso-8859-1" standalone="no"?> 
<?xml-stylesheet href="TE_export636301338642313789.css" type="text/css"?> 
<svg xmlns="http://www.w3.org/2000/svg" xmlns:xlink="http://www.w3.org/1999/xlink" width="680pt" height="400pt" viewBox="-227.62195 -56.90549 341.43292 199.1692 "> 
<g transform="translate(0, 142.26372 ) scale(1,-1) translate(0,56.90549 )"> 
                                                                    <g> 
 <g stroke="rgb(0.0%,0.0%,0.0%)"> 
 <g fill="rgb(0.0%,0.0%,0.0%)"> 
 <g stroke-width="0.4pt"> 
 <g> 
 <clipPath id="pgfcp1"> <path d=" M  -227.62195 -56.90549 M  -227.62195 -56.90549 L  -227.62195 142.26372 L  113.81097 142.26372 L  113.81097 -56.90549 Z M  113.81097 142.26372  "/> 
</clipPath> 
 <g clip-path="url(#pgfcp1)"> 
 <path d=" M  -227.62195 -56.90549 L  -213.39557 -42.67911 L  -199.1692 -28.45274 L  -184.94283 -14.22636 L  -170.71646 0.0 L  -156.49008 14.22636 L  -142.26372 28.45274 L  -128.03734 42.67911 L  -113.81097 56.90549 L  -99.5846 71.13185 L  -85.35823 85.35823 L  -71.13185 99.5846 L  -56.90549 113.81097 L  -42.67911 128.03734 L  -28.45274 142.26372 L  -14.22636 156.49008 L  0.0 170.71646 L  14.22636 184.94283 L  28.45274 199.1692 L  42.67911 213.39557 L  56.90549 227.62195 L  71.13185 241.84831 L  85.35823 256.07469 L  99.5846 270.30106 L  113.81097 284.52744  " style="fill:none"/> 
 <path d=" M  -227.62195 28.45274 L  -213.39557 28.45274 L  -199.1692 28.45274 L  -184.94283 28.45274 L  -170.71646 28.45274 L  -156.49008 28.45274 L  -142.26372 28.45274 L  -128.03734 28.45274 L  -113.81097 28.45274 L  -99.5846 28.45274 L  -85.35823 28.45274 L  -71.13185 28.45274 L  -56.90549 28.45274 L  -42.67911 28.45274 L  -28.45274 28.45274 L  -14.22636 28.45274 L  0.0 28.45274 L  14.22636 28.45274 L  28.45274 28.45274 L  42.67911 28.45274 L  56.90549 28.45274 L  71.13185 28.45274 L  85.35823 28.45274 L  99.5846 28.45274 L  113.81097 28.45274  " style="fill:none"/> 
 <g> 
 <g stroke-dasharray="3.0pt,3.0pt" stroke-dashoffset="0.0pt"> 
 <path d=" M  -227.62195 227.62195 L  -213.39557 213.39557 L  -199.1692 199.1692 L  -184.94283 184.94283 L  -170.71646 170.71646 L  -156.49008 156.49008 L  -142.26372 142.26372 L  -128.03734 128.03734 L  -113.81097 113.81097 L  -99.5846 99.5846 L  -85.35823 85.35823 L  -71.13185 71.13185 L  -56.90549 56.90549 L  -42.67911 42.67911 L  -28.45274 28.45274 L  -14.22636 14.22636 L  0.0 0.0 L  14.22636 -14.22636 L  28.45274 -28.45274 L  42.67911 -42.67911 L  56.90549 -56.90549 L  71.13185 -71.13185 L  85.35823 -85.35823 L  99.5846 -99.5846 L  113.81097 -113.81097  " style="fill:none"/> 
 </g> 
 </g> 
 <g> 
 <g stroke-dasharray="3.0pt,3.0pt" stroke-dashoffset="0.0pt"> 
 <path d=" M  -227.62195 79.66733 L  -213.39557 76.82231 L  -199.1692 73.97687 L  -184.94283 71.13185 L  -170.71646 68.2864 L  -156.49008 65.44095 L  -142.26372 62.59595 L  -128.03734 59.75049 L  -113.81097 56.90549 L  -99.5846 54.06003 L  -85.35823 51.21458 L  -71.13185 48.36957 L  -56.90549 45.52412 L  -42.67911 42.67911 L  -28.45274 39.83366 L  -14.22636 36.9882 L  0.0 34.1432 L  14.22636 31.29774 L  28.45274 28.45274 L  42.67911 25.60728 L  56.90549 22.76184 L  71.13185 19.91682 L  85.35823 17.07138 L  99.5846 14.22636 L  113.81097 11.38092  " style="fill:none"/> 
 </g> 
 </g> 
 <g> 
 <g stroke-dasharray="3.0pt,3.0pt" stroke-dashoffset="0.0pt"> 
 <path d=" M  -227.62195 -18.9682 L  -213.39557 -14.22636 L  -199.1692 -9.4841 L  -184.94283 -4.74182 L  -170.71646 0.0 L  -156.49008 4.74182 L  -142.26372 9.4841 L  -128.03734 14.22636 L  -113.81097 18.9682 L  -99.5846 23.71046 L  -85.35823 28.45274 L  -71.13185 33.19456 L  -56.90549 37.93684 L  -42.67911 42.67911 L  -28.45274 47.42094 L  -14.22636 52.16321 L  0.0 56.90549 L  14.22636 61.64731 L  28.45274 66.38959 L  42.67911 71.13185 L  56.90549 75.87369 L  71.13185 80.61595 L  85.35823 85.35823 L  99.5846 90.10005 L  113.81097 94.84233  " style="fill:none"/> 
 </g> 
 </g> 
 <g> 
 <g fill="rgb(0.0%,0.0%,100.0%)"> 
 <path d=" M  -85.35823 85.35823 M  -82.85823 85.35823 C  -82.85823 86.73895 -83.97751 87.85823 -85.35823 87.85823 C  -86.73895 87.85823 -87.85823 86.73895 -87.85823 85.35823 C  -87.85823 83.97751 -86.73895 82.85823 -85.35823 82.85823 C  -83.97751 82.85823 -82.85823 83.97751 -82.85823 85.35823 Z M  -85.35823 85.35823  " /> 
 </g> 
 </g> 
 <g> 
 <g stroke="rgb(0.0%,0.0%,100.0%)"> 
 <g fill="rgb(0.0%,0.0%,100.0%)"> 
 <path d=" M  -82.51277 93.89413  " style="fill:none"/> 
 <g> 
 <g> 
 <g transform="matrix(1.0,0.0,0.0,1.0,-85.51973,91.50247)"> 
 <g fill="rgb(0.0%,0.0%,100.0%)"> 
 <text style="stroke:none" transform="scale(1,-1) translate(3.00696,0)" text-anchor="middle"  font-size="7"> 
<tspan font-family="cmmi" font-size="7">A</tspan></text> 
</g> 
 </g> 
 </g> 
 </g> 
 </g> 
 </g> 
 </g> 
 <g> 
 <g fill="rgb(0.0%,0.0%,100.0%)"> 
 <path d=" M  -113.81097 56.90549 M  -111.31097 56.90549 C  -111.31097 58.28621 -112.43025 59.40549 -113.81097 59.40549 C  -115.1917 59.40549 -116.31097 58.28621 -116.31097 56.90549 C  -116.31097 55.52477 -115.1917 54.40549 -113.81097 54.40549 C  -112.43025 54.40549 -111.31097 55.52477 -111.31097 56.90549 Z M  -113.81097 56.90549  " /> 
 </g> 
 </g> 
 <g> 
 <g stroke="rgb(0.0%,0.0%,100.0%)"> 
 <g fill="rgb(0.0%,0.0%,100.0%)"> 
 <path d=" M  -110.96552 65.44139  " style="fill:none"/> 
 <g> 
 <g> 
 <g transform="matrix(1.0,0.0,0.0,1.0,-114.15701,63.04973)"> 
 <g fill="rgb(0.0%,0.0%,100.0%)"> 
 <text style="stroke:none" transform="scale(1,-1) translate(3.1915,0)" text-anchor="middle"  font-size="7"> 
<tspan font-family="cmmi" font-size="7">B</tspan></text> 
</g> 
 </g> 
 </g> 
 </g> 
 </g> 
 </g> 
 </g> 
 <g> 
 <g fill="rgb(49.00055%,49.00055%,100.0%)"> 
 <path d=" M  -170.71646 0.0 M  -168.21646 0.0 C  -168.21646 1.38072 -169.33574 2.5 -170.71646 2.5 C  -172.09718 2.5 -173.21646 1.38072 -173.21646 0.0 C  -173.21646 -1.38072 -172.09718 -2.5 -170.71646 -2.5 C  -169.33574 -2.5 -168.21646 -1.38072 -168.21646 0.0 Z M  -170.71646 0.0  " /> 
 </g> 
 </g> 
 <g> 
 <g stroke="rgb(49.00055%,49.00055%,100.0%)"> 
 <g fill="rgb(49.00055%,49.00055%,100.0%)"> 
 <path d=" M  -167.871 7.96672  " style="fill:none"/> 
 <g> 
 <g> 
 <g transform="matrix(1.0,0.0,0.0,1.0,-170.984,5.57506)"> 
 <g fill="rgb(49.00055%,49.00055%,100.0%)"> 
 <text style="stroke:none" transform="scale(1,-1) translate(3.11299,0)" text-anchor="middle"  font-size="7"> 
<tspan font-family="cmmi" font-size="7">C</tspan></text> 
</g> 
 </g> 
 </g> 
 </g> 
 </g> 
 </g> 
 </g> 
 <g> 
 <g fill="rgb(0.0%,0.0%,100.0%)"> 
 <path d=" M  -28.45274 28.45274 M  -25.95274 28.45274 C  -25.95274 29.83347 -27.07202 30.95274 -28.45274 30.95274 C  -29.83347 30.95274 -30.95274 29.83347 -30.95274 28.45274 C  -30.95274 27.07202 -29.83347 25.95274 -28.45274 25.95274 C  -27.07202 25.95274 -25.95274 27.07202 -25.95274 28.45274 Z M  -28.45274 28.45274  " /> 
 </g> 
 </g> 
 <g> 
 <g stroke="rgb(0.0%,0.0%,100.0%)"> 
 <g fill="rgb(0.0%,0.0%,100.0%)"> 
 <path d=" M  -25.60728 36.98865  " style="fill:none"/> 
 <g> 
 <g> 
 <g transform="matrix(1.0,0.0,0.0,1.0,-29.76701,34.59698)"> 
 <g fill="rgb(0.0%,0.0%,100.0%)"> 
 <text style="stroke:none" transform="scale(1,-1) translate(4.15973,0)" text-anchor="middle"  font-size="7"> 
<tspan font-family="cmmi" font-size="7">A</tspan><tspan font-family="cmsy" font-size="7">&#x2032;</tspan></text> 
</g> 
 </g> 
 </g> 
 </g> 
 </g> 
 </g> 
 </g> 
 <g> 
 <g fill="rgb(0.0%,0.0%,100.0%)"> 
 <path d=" M  28.45274 28.45274 M  30.95274 28.45274 C  30.95274 29.83347 29.83347 30.95274 28.45274 30.95274 C  27.07202 30.95274 25.95274 29.83347 25.95274 28.45274 C  25.95274 27.07202 27.07202 25.95274 28.45274 25.95274 C  29.83347 25.95274 30.95274 27.07202 30.95274 28.45274 Z M  28.45274 28.45274  " /> 
 </g> 
 </g> 
 <g> 
 <g stroke="rgb(0.0%,0.0%,100.0%)"> 
 <g fill="rgb(0.0%,0.0%,100.0%)"> 
 <path d=" M  31.29819 36.98865  " style="fill:none"/> 
 <g> 
 <g> 
 <g transform="matrix(1.0,0.0,0.0,1.0,26.95392,34.59698)"> 
 <g fill="rgb(0.0%,0.0%,100.0%)"> 
 <text style="stroke:none" transform="scale(1,-1) translate(4.34427,0)" text-anchor="middle"  font-size="7"> 
<tspan font-family="cmmi" font-size="7">B</tspan><tspan font-family="cmsy" font-size="7">&#x2032;</tspan></text> 
</g> 
 </g> 
 </g> 
 </g> 
 </g> 
 </g> 
 </g> 
 <g> 
 <g stroke="rgb(0.0%,0.0%,0.0%)"> 
 <g fill="rgb(0.0%,0.0%,0.0%)"> 
 <path d=" M  -125.1919 130.88278  " style="fill:none"/> 
 <g> 
 <g> 
 <g transform="matrix(1.0,0.0,0.0,1.0,-127.36072,129.37584)"> 
 <g fill="rgb(0.0%,0.0%,0.0%)"> 
 <text style="stroke:none" transform="scale(1,-1) translate(2.16882,0)" text-anchor="middle"  font-size="7"> 
<tspan font-family="cmmi" font-size="7">a</tspan></text> 
</g> 
 </g> 
 </g> 
 </g> 
 </g> 
 </g> 
 </g> 
 <g> 
 <g stroke="rgb(0.0%,0.0%,0.0%)"> 
 <g fill="rgb(0.0%,0.0%,0.0%)"> 
 <path d=" M  -206.85156 71.13185  " style="fill:none"/> 
 <g> 
 <g> 
 <g transform="matrix(1.0,0.0,0.0,1.0,-208.6099,68.70131)"> 
 <g fill="rgb(0.0%,0.0%,0.0%)"> 
 <text style="stroke:none" transform="scale(1,-1) translate(1.75833,0)" text-anchor="middle"  font-size="7"> 
<tspan font-family="cmmi" font-size="7">b</tspan></text> 
</g> 
 </g> 
 </g> 
 </g> 
 </g> 
 </g> 
 </g> 
 <g> 
 <g fill="rgb(27.00043%,27.00043%,25.99945%)"> 
 <path d=" M  -42.67911 42.67911 M  -41.17911 42.67911 C  -41.17911 43.50754 -41.85068 44.17911 -42.67911 44.17911 C  -43.50754 44.17911 -44.17911 43.50754 -44.17911 42.67911 C  -44.17911 41.85068 -43.50754 41.17911 -42.67911 41.17911 C  -41.85068 41.17911 -41.17911 41.85068 -41.17911 42.67911 Z M  -42.67911 42.67911  " /> 
 </g> 
 </g> 
 <g> 
 <g stroke="rgb(27.00043%,27.00043%,25.99945%)"> 
 <g fill="rgb(27.00043%,27.00043%,25.99945%)"> 
 <path d=" M  -39.83366 48.36957  " style="fill:none"/> 
 <g> 
 <g> 
 <g transform="matrix(1.0,0.0,0.0,1.0,-42.98254,45.9779)"> 
 <g fill="rgb(27.00043%,27.00043%,25.99945%)"> 
 <text style="stroke:none" transform="scale(1,-1) translate(3.14888,0)" text-anchor="middle"  font-size="7"> 
<tspan font-family="cmmi" font-size="7">O</tspan></text> 
</g> 
 </g> 
 </g> 
 </g> 
 </g> 
 </g> 
 </g> 
 <g> 
 <g stroke="rgb(0.0%,0.0%,0.0%)"> 
 <g fill="rgb(0.0%,0.0%,0.0%)"> 
 <path d=" M  -206.85156 -4.55254  " style="fill:none"/> 
 <g> 
 <g> 
 <g transform="matrix(1.0,0.0,0.0,1.0,-208.63843,-6.05948)"> 
 <g fill="rgb(0.0%,0.0%,0.0%)"> 
 <text style="stroke:none" transform="scale(1,-1) translate(1.78687,0)" text-anchor="middle"  font-size="7"> 
<tspan font-family="cmmi" font-size="7">c</tspan></text> 
</g> 
 </g> 
 </g> 
 </g> 
 </g> 
 </g> 
 </g> 
 <g> 
 <g fill="rgb(27.00043%,27.00043%,25.99945%)"> 
 <path d=" M  -85.35823 28.45274 M  -83.85823 28.45274 C  -83.85823 29.28117 -84.5298 29.95274 -85.35823 29.95274 C  -86.18666 29.95274 -86.85823 29.28117 -86.85823 28.45274 C  -86.85823 27.62431 -86.18666 26.95274 -85.35823 26.95274 C  -84.5298 26.95274 -83.85823 27.62431 -83.85823 28.45274 Z M  -85.35823 28.45274  " /> 
 </g> 
 </g> 
 <g> 
 <g stroke="rgb(27.00043%,27.00043%,25.99945%)"> 
 <g fill="rgb(27.00043%,27.00043%,25.99945%)"> 
 <path d=" M  -82.51277 36.98865  " style="fill:none"/> 
 <g> 
 <g> 
 <g transform="matrix(1.0,0.0,0.0,1.0,-86.77853,34.59698)"> 
 <g fill="rgb(27.00043%,27.00043%,25.99945%)"> 
 <text style="stroke:none" transform="scale(1,-1) translate(4.26576,0)" text-anchor="middle"  font-size="7"> 
<tspan font-family="cmmi" font-size="7">C</tspan><tspan font-family="cmsy" font-size="7">&#x2032;</tspan></text> 
</g> 
 </g> 
 </g> 
 </g> 
 </g> 
 </g> 
 </g> 
 </g> 
 </g> 
 </g> 
 </g> 
 </g> 
 </g> 
 
                                                        </g> 
</svg>

<?xml-stylesheet href="TE_export636301338642313789.css" type="text/css"?>
<svg xmlns="http://www.w3.org/2000/svg" width="680pt" height="400pt" viewBox="-227.6 -56.9 341.4 199.2">
  <g transform="matrix(1 0 0 -1 0 85.4)" stroke-width=".5" stroke="#000">
    <clipPath id="a">
      <path d="M-227.6-57v199.3h341.4V-57zm341.4 199.3"/>
    </clipPath>
    <g clip-path="url(#a)">
      <path d="M-227.6-57l14.2 14.3 14.2 14.2 14.3 14.3L-170.7 0l14.2 14.2 14.2 14.3 14.3 14.2 14.2 14.2 14.2 14.2 14.2 14.3L-71 99.6l14.2 14.2 14.2 14.2 14.2 14.3 14.3 14.2L0 170.7 14.2 185l14.3 14.3 14.2 14.2 14.2 14.2 14.2 14.2 14.3 14.3 14.2 14.2 14.2 14.2M-227.6 28.5H113.8" fill="none"/>
      <path d="M-227.6 227.6l14.2-14.2 14.2-14.2 14.3-14.3 14.2-14.2 14.2-14.2 14.2-14.2L-128 128l14.2-14.2 14.2-14.2 14.2-14.2L-71 71-57 57l14.2-14.2 14.2-14.2 14.3-14.3L0 0l14.2-14.2 14.3-14.3 14.2-14.2 14.2-14.2 14.2-14.2 14.3-14.3 14.2-14.2 14.2-14.2M-227.6 79.7l14.2-2.9 14.2-2.8 14.3-2.9 14.2-2.8 14.2-2.9 14.2-2.8 14.3-2.8 14.2-2.9 14.2-2.8 14.2-2.9 14.3-2.8 14.2-2.9 14.2-2.8 14.2-2.9 14.3-2.8L0 34l14.2-2.8 14.3-2.8 14.2-2.9 14.2-2.8 14.2-2.9 14.3-2.8 14.2-2.9 14.2-2.8" fill="none" stroke-dasharray="3.0pt,3.0pt"/>
      <path d="M-227.6-19l14.2 4.8 14.2 4.7 14.3 4.8 14.2 4.7 14.2 4.7 14.2 4.8 14.3 4.7 14.2 4.8 14.2 4.7 14.2 4.8 14.3 4.7 14.2 4.7 14.2 4.8 14.2 4.7 14.3 4.8L0 56.9l14.2 4.7 14.3 4.8L42.7 71 56.9 76l14.2 4.7 14.3 4.8L99.6 90l14.2 4.7" fill="none" stroke-dasharray="3.0pt,3.0pt"/>
      <path d="M-82.9 85.4a2.5 2.5 0 1 1-5 0 2.5 2.5 0 0 1 5 0zm-2.5 0" fill="#00F"/>
      <text transform="matrix(1 0 0 -1 -82.5 91.5)" text-anchor="middle" font-size="7" stroke="none" fill="#00F">
        <tspan font-family="cmmi">A</tspan>
      </text>
      <path d="M-111.3 57a2.5 2.5 0 1 1-5 0 2.5 2.5 0 0 1 5 0zm-2.5 0" fill="#00F"/>
      <text transform="matrix(1 0 0 -1 -111 63)" text-anchor="middle" font-size="7" stroke="none" fill="#00F">
        <tspan font-family="cmmi">B</tspan>
      </text>
      <path d="M-168.2 0a2.5 2.5 0 1 1-5 0 2.5 2.5 0 0 1 5 0zm-2.5 0" fill="#7D7DFF"/>
      <text transform="matrix(1 0 0 -1 -167.9 5.6)" text-anchor="middle" font-size="7" stroke="none" fill="#7D7DFF">
        <tspan font-family="cmmi">C</tspan>
      </text>
      <path d="M-26 28.5a2.5 2.5 0 1 1-5 0 2.5 2.5 0 0 1 5 0zm-2.5 0" fill="#00F"/>
      <text transform="matrix(1 0 0 -1 -25.6 34.6)" text-anchor="middle" font-size="7" stroke="none" fill="#00F">
        <tspan font-family="cmmi">A</tspan><tspan font-family="cmsy">′</tspan>
      </text>
      <path d="M31 28.5a2.5 2.5 0 1 1-5 0 2.5 2.5 0 0 1 5 0zm-2.5 0" fill="#00F"/>
      <text transform="matrix(1 0 0 -1 31.3 34.6)" text-anchor="middle" font-size="7" stroke="none" fill="#00F">
        <tspan font-family="cmmi">B</tspan><tspan font-family="cmsy">′</tspan>
      </text>
      <text transform="matrix(1 0 0 -1 -125.2 129.4)" text-anchor="middle" font-size="7" stroke="none">
        <tspan font-family="cmmi">a</tspan>
      </text>
      <text transform="matrix(1 0 0 -1 -206.9 68.7)" text-anchor="middle" font-size="7" stroke="none">
        <tspan font-family="cmmi">b</tspan>
      </text>
      <path d="M-41.2 42.7a1.5 1.5 0 1 1-3 0 1.5 1.5 0 0 1 3 0zm-1.5 0" fill="#454542"/>
      <text transform="matrix(1 0 0 -1 -39.8 46)" text-anchor="middle" font-size="7" stroke="none" fill="#454542">
        <tspan font-family="cmmi">O</tspan>
      </text>
      <text transform="matrix(1 0 0 -1 -206.9 -6)" text-anchor="middle" font-size="7" stroke="none">
        <tspan font-family="cmmi">c</tspan>
      </text>
      <path d="M-83.9 28.5a1.5 1.5 0 1 1-3 0 1.5 1.5 0 0 1 3 0zm-1.5 0" fill="#454542"/>
      <text transform="matrix(1 0 0 -1 -82.5 34.6)" text-anchor="middle" font-size="7" stroke="none" fill="#454542">
        <tspan font-family="cmmi">C</tspan><tspan font-family="cmsy">′</tspan>
      </text>
    </g>
  </g>
</svg>
